X:9521
T:Les Magiciens 1 (C. Caron) - Tour 
C:Burns Duo
M:4/4
L:1/8
K:G
G2 GG G2 A2|B2 G2 AB A2|\
G2 GG A2 BA|E2 F2 G4:|\
|:G2 FE D2 A2|A2 Bc B2 A2|\
G2 FE D2 A2|A2 EF G4:|
